X:1
T:Liberty Hall, CM
T:Liberty Hall, CM
T:Wyeth’s Repository of Sacred Music, 1810
T:Public Domain Courtesy of the Cyber Hymnal™
C:Wyeth’s Repository of Sacred Music, 1810
Z:Public Domain
Z:Courtesy of the Cyber Hymnal™
%%score ( 1 2 ) ( 3 4 )
L:1/8
M:3/4
K:C
V:1 treble 
V:2 treble 
V:3 bass 
V:4 bass 
V:1
 E2 | [EA]4 [E^G]2 | [EA]4 (Bc) | [Ad]4 ([GB][FA]) | [EG]4 [Ac]2 | [Ae]4 (cB) | [EA]4 ([GB][Ac]) | %7
 [Gd]4 [Ec]2 | [Ee]4 (cB) | [CA]4 (Bc) | [Fd]4 ([GB][FA]) | [EG]4 [Ac]2 | [GB]4 (A[EG]) | %13
 E4 [E^G]2 | [EA]4 |] %15
V:2
 E2 | x6 | x4 E2 | x6 | x6 | x4 E2 | x6 | x6 | x4 C2 | x4 E2 | x6 | x6 | x6 | E4 x2 | x4 |] %15
V:3
 [E,E]2 | [A,,C]4 [E,B,]2 | A,4 (^G,A,) | (A,2 B,C) ([E,D][F,C]) | [G,B,]4 [A,E]2 | [A,E]4 G,2 | %6
 [A,C]4 ([E,B,][F,B,]) | [G,B,]4 [C,^G,]2 | [A,,A,]4 (G,F,) | z2 [E,^G,]2 x2 | %10
 [D,A,]4 ([E,^G,][F,A,]) | [G,B,]4 [C,E]2 | [E,E]4 (FE) | [A,E]4 [E,B,]2 | [A,,A,]4 |] %15
V:4
 x2 | x6 | A,4 E,2 | D,4 x2 | x6 | x4 G,2 | x6 | x6 | x4 E,2 | (A,4 E,2) | x6 | x6 | x4 A,2 | x6 | %14
 x4 |] %15

